X: 38200
T: Spring In The Bog
R: slide
M: 12/8
K: Gmajor
d3|:~g3 ded BdB G2B|AcA DFA GBd def|
g2d ded BdB G2B|1 AcA DFA G3 GBd:|2 AcA DFA G3 G2B||
|:d2g gfg b3 bag|bag agf gag edB|
d2g gfg b3 baf|1 ebb agf e3 e2d:|2 ebb agf e2d e2f||

